!!!!SEGMENT: pl-wtm--r-274-m--003_moniuszko-stanislaw--cztery-piesni-nabozne-graduale.krn
!!!cenid: 18xx:1733
!!!COM: Moniuszko, Stanisław
!!!COM-rismID: pe30008351
!!!CDT: 1819/05/05-1872/06/04
!!!CNT: Polish
!!!OPR: Cztery pieśni nabożne
!!!OTL: Graduale
!!!OMV: 003
!!!PDT:
!!!AGN: Sacred; Mass
!!!SMS-siglum: PL-Wtm
!!!SMS-shelfmark: R 274/M
!!!SMS-shelfwork: 001-003 M
!!!SMS-variant:
!!!SMS-altvar:
!!!NIFC-rismSourceID: 1001097041
!!!NIFC-islandoraID:
!!!URL-pdf-islandora:
!!!URL-scan:
!!!ONB-nifc:
!!!AIN: 1 alto 1 empty 1 organ 1 soprn 1 tenor
!!!key:
**kern	**kern	**dynam	**kern	**dynam	**kern	**dynam	**kern	**dynam	**kern	**text	**dynam
*part5	*part5	*part5	*part4	*part4	*part3	*part3	*part2	*part2	*part1	*part1	*part1
*staff6	*staff5	*	*staff4	*	*staff3	*	*staff2	*	*staff1	*staff1	*
*group	*group	*	*group1	*	*group1	*	*group1	*	*group1	*	*
*Iorgan	*Iempty	*	*Iempty	*	*Itenor	*	*Ialto	*	*Isoprn	*	*
*I"Organ	*	*	*I"[Basso]	*	*I"[Tenore]	*	*I"[Alto]	*	*I"[Soprano]	*	*
*I'org	*	*	*I'[B]	*	*I'[T]	*	*I'[A]	*	*I'[S]	*	*
*clefF4	*clefG2	*	*clefF4	*	*clefC4	*	*clefC3	*	*clefC1	*	*
*k[f#c#]	*k[f#c#]	*	*k[f#c#]	*	*k[f#c#]	*	*k[f#c#]	*	*k[f#c#]	*	*
*D:	*D:	*	*D:	*	*D:	*	*D:	*	*D:	*	*
*M4/4	*M4/4	*	*M4/4	*	*M4/4	*	*M4/4	*	*M4/4	*	*
*met(c)	*met(c)	*	*met(c)	*	*met(c)	*	*met(c)	*	*met(c)	*	*
!	!	!	!	!	!	!	!	!	!LO:TX:a:i:t=Solo&colon;	!	!
!	!	!	!	!	!	!	!LO:TX:a:i:t=Solo	!	!LO:TX:a:i:t=Largo assai.	!	!
!	!	!	!	!	!	!	!	!	!LO:TX:a:i:t=Graduale.	!	!
!	!LO:TX:a:t=P:problem=w źródle znaki przykluczowe f# cc#	!	!	!	!	!	!LO:TX:a:t=P:problem=w źródle znaki przykluczowe F# c#	!	!LO:TX:a:t=P:problem=w źródle znaki przykluczowe f# cc#	!	!
8r	8r	.	8r	.	8r	.	8d\	.	8f#/	Po-	.
=1	=1	=1	=1	=1	=1	=1	=1	=1	=1	=1	=1
*	*	*	*	*	*	*	*2\right	*	*	*	*
1r	1r	.	1r	.	1r	.	2d\	.	2f#/	-wstań-	.
.	.	.	.	.	.	.	4A/	.	4d/	-cie!	.
.	.	.	.	.	.	.	8r	.	8r	.	.
!	!	!	!	!	!	!	!LO:TX:a:t=P:problem=all\right&colon; global	!	!LO:TX:a:t=P:problem=all\right&colon; global	!	!
.	.	.	.	.	.	.	8f#\	.	8a\	po-	.
=2	=2	=2	=2	=2	=2	=2	=2	=2	=2	=2	=2
*	*	*	*	*	*	*	*	*	*2\right	*	*
2r	2r	.	2r	.	2r	.	2f#\	.	2a\	-wstań-	.
4r	4r	.	4r	.	4r	.	8d\	.	8f#/	-cie	.
.	.	f	.	.	.	.	8r	.	8r	.	.
!	!	!	!LO:TX:a:t=P:problem=all\right&colon; global	!	!	!	!LO:TX:b:i:t=tutti.	!	!LO:TX:a:i:t=tutti.	!	!
4A/	4a/	.	4A\	.	4A/	.	4a\	.	4a\	po-	.
!	!	!	!	!LO:DY:b	!	!LO:DY:b	!	!LO:DY:b	!	!	!LO:DY:b:t=f.
.	.	.	.	f	.	f	.	f	.	.	f
=3	=3	=3	=3	=3	=3	=3	=3	=3	=3	=3	=3
*^	*^	*	*	*	*	*	*	*	*	*	*
*2\right	*2\right	*2\right	*2\right	*	*	*	*	*	*	*	*	*	*
!	!	!	!	!	!	!	!LO:TX:a:t=P:problem=all\right&colon; global	!	!	!	!	!	!
2A/	2D\	2dd/	2f#/	.	4D\	.	4A\	.	4f#\	.	4dd\	-wstań-	.
.	.	.	.	.	8.D\	.	8.A\	.	8.f#\	.	8.dd\	-cie	.
.	.	.	.	.	16D\	.	16A\	.	16f#\	.	16dd\	świa-	.
2B 2G/	2GG\	4dd/	2g\	.	4G\	.	4B\	.	4g\	.	4dd\	-tło-	.
.	.	4ee 4dd/	.	.	4G\	.	4B\	.	4g\	.	4ee\	-ści	.
=4	=4	=4	=4	=4	=4	=4	=4	=4	=4	=4	=4	=4	=4
*	*	*	*	*	*2\right	*	*2\right	*	*	*	*	*	*
2A 2D/	2DD\	2ff# 2dd/	2f#\	.	2D\	.	2A\	.	2f#\	.	2ff#\	Sy-	.
2rD	2rD	2rb	2rb	.	4D\	.	4d\	.	4f#\	.	4dd\	-ny	.
.	.	.	.	.	4r	.	8r	.	8r	.	8r	.	.
!	!	!	!	!	!	!	!LO:TX:a:i:t=Solo	!	!LO:TX:a:i:t=Solo	!	!LO:TX:a:i:t=Soli&colon;	!	!
.	.	.	.	.	.	.	8B\	.	8f#\	.	8dd\	po-	.
*v	*v	*	*	*	*	*	*	*	*	*	*	*	*
*	*v	*v	*	*	*	*	*	*	*	*	*	*
=5	=5	=5	=5	=5	=5	=5	=5	=5	=5	=5	=5
1r	1r	.	2r	.	2B\	.	2f#\	.	2dd\	-kar-	.
.	.	.	4r	.	4d\	.	4f#\	.	4b\	-mem,	.
.	.	.	8r	.	8r	.	8r	.	8r	.	.
!	!	!	!LO:TX:a:i:t=Solo	!	!	!	!	!	!	!	!
.	.	.	8F#\	.	8c#\	.	8a\	.	8cc#\	po-	.
!!LO:PB:g=original
=6	=6	=6	=6	=6	=6	=6	=6	=6	=6	=6	=6
*^	*	*	*	*	*	*	*	*	*	*	*
!	!LO:N:vis=1	!	!	!	!	!	!	!	!	!	!	!
2rD	2.rGG	2r	.	2F#\	.	2c#\	.	2a\	.	2cc#\	-kor-	.
4rD	.	4r	.	4F#\	.	4c#\	.	4f#\	.	4a\	-nem	.
!	!	!	!	!LO:TX:a:i:t=tutti.	!	!LO:TX:a:i:t=tutti	!	!LO:TX:a:i:t=tutti.	!	!LO:TX:a:i:t=tutti.	!	!
!	!LO:TX:a:t=P:problem=all\right&colon; global	!	!	!	!LO:DY:b:rj:t=pp.	!	!LO:DY:b:t=pp.	!	!	!	!	!
!	!	!	!LO:DY:b:rj:t=pp.	!	!	!	!	!	!	!	!	!
4c#/	4F#\	[>4a [<4f#/	pp	4F#\	pp	4c#\	pp	4f#\	.	4a\	u-	.
!	!	!	!	!	!	!	!	!	!LO:DY:b	!	!	!
.	.	.	.	.	.	.	.	.	pp	.	.	.
=7	=7	=7	=7	=7	=7	=7	=7	=7	=7	=7	=7	=7
*	*^	*	*	*	*	*	*	*	*	*	*	*
!	!	!	!	!	!	!	!	!	!	!	!	!	!LO:DY:a:t=pp.
1B	2D\	1rFF	2a] 2f#/]	.	2D\	.	2B\	.	2f#\	.	2a\	-czu-	pp
.	2E\	.	2g#X 2e/	.	4E\	.	4B\	.	4e\	.	4g#X\	-ciem	.
.	.	.	.	.	4E\	.	4B\	.	4d\	.	4a\	prze-	.
*	*v	*v	*	*	*	*	*	*	*	*	*	*	*
=8	=8	=8	=8	=8	=8	=8	=8	=8	=8	=8	=8	=8
2G#X/	2E\	2b 2d/	.	2E\	.	2G#X/	.	2d\	.	2b\	-ję-	.
4A/	2rFF	4a 4c#/	.	8AA/	.	8A/	.	8c#\	.	8a\	-te.	.
.	.	.	.	8r	.	8r	.	8r	.	8r	.	.
!	!	!	!LO:DY:b:rj:t=f.	!	!LO:DY:b:rj:t=f.	!	!LO:DY:b:rj:t=f.	!	!LO:DY:b:rj:t=f.	!	!	!LO:DY:a
4A/	.	4a/	f	4A\	f	4A\	f	4a\	f	4a\	Pan	f
!	!	!	!LO:DY:b=2	!	!	!	!	!	!	!	!	!
.	.	.	f	.	.	.	.	.	.	.	.	.
=9	=9	=9	=9	=9	=9	=9	=9	=9	=9	=9	=9	=9
*	*	*^	*	*	*	*	*	*	*	*	*	*
1B 1G	1GG	1b 1g	1d	.	4.G\	.	4.d\	.	4.g\	.	4.b\	z gór-	.
.	.	.	.	.	8G\	.	8d\	.	8g\	.	8b\	-nej	.
.	.	.	.	.	4G\	.	4d\	.	4g\	.	4b\	nie-	.
.	.	.	.	.	8.G\	.	8.d\	.	8.g\	.	8.b\	-bios	.
.	.	.	.	.	16G\	.	16d\	.	16g\	.	16b\	kra-	.
=10	=10	=10	=10	=10	=10	=10	=10	=10	=10	=10	=10	=10	=10
2.A 2.F#/	2FF#\	2dd/	2a [<2d\	.	2F#\	.	2d\	.	2a\	.	2dd\	-i-	.
.	4F#\	4a/	4d\]	.	4F#\	.	4d\	.	4a\	.	4a\	-ny	.
4rD	4rD	4rb	4rb	.	4F#\	.	4d\	.	4a\	.	4dd\	o-	.
*	*	*v	*v	*	*	*	*	*	*	*	*	*	*
=11	=11	=11	=11	=11	=11	=11	=11	=11	=11	=11	=11	=11
2B/	2E\	2ee 2g/	.	4E\	.	4B\	.	4g\	.	4ee\	-gła-	.
.	.	.	.	8.E\	.	8.B\	.	8.g\	.	8.ee\	-sza	.
.	.	.	.	16E\	.	16B\	.	16g\	.	16ee\	na-	.
4B/	4E\	4ee 4g/	.	4E\	.	4B\	.	4g\	.	4ee\	-u-	.
4B/	4E\	4ee 4g/	.	4E\	.	4B\	.	4g\	.	4ee\	-ki	.
!!LO:LB:g=original
=12	=12	=12	=12	=12	=12	=12	=12	=12	=12	=12	=12	=12
*	*	*^	*	*	*	*	*	*	*	*	*	*
2c# 2A\	2AA\	(>2gg\	2a\	.	2AA/	.	2c#\	.	2a\	.	2gg\	swię-	.
!	!	!	!LO:TX:a:t=P:problem=all\right&colon; global	!	!	!	!	!	!	!	!	!	!
4d\	4D\	4ff#\)	4a\	.	4D/	.	4d\	.	4a\	.	4ff#\	-te,	.
!	!	!	!	!	!	!	!	!	!	!LO:DY:b:rj	!	!	!LO:DY:a:rj:t=p.
4rD	4rD	4ff#/	4rb	.	4r	.	4r	.	4f#\	p	4ff#\	o-	p
*	*	*v	*v	*	*	*	*	*	*	*	*	*	*
=13	=13	=13	=13	=13	=13	=13	=13	=13	=13	=13	=13	=13
2rD	1rGG	2ff#/	.	2r	.	2r	.	2f#\	.	2ff#\	-gła-	.
4rD	.	4dd/	.	4r	.	4r	.	4d\	.	4dd\	-sza	.
!	!	!	!	!	!LO:DY:b:rj	!	!LO:DY:b:rj:t=p.	!	!	!	!	!
4A\	.	4a/	.	4A\	p	4A\	p	4a\	.	4a\	na-	.
=14	=14	=14	=14	=14	=14	=14	=14	=14	=14	=14	=14	=14
2d\	1rGG	2dd/	.	(>2d\	.	(>2d\	.	2dd 2d\	.	(>2dd\	-u-	.
4A\	.	4a/	.	4A\)	.	4A\)	.	4a\	.	4a\)	.	.
4F\#	.	4f#/	.	4F#\	.	4F#/	.	4f#\	.	4f#/	-ki	.
=15	=15	=15	=15	=15	=15	=15	=15	=15	=15	=15	=15	=15
*	*	*^	*	*	*	*	*	*	*	*	*	*
2F#/	2AA\	2.a/	2d\	.	1AA	.	2F#/	.	2d\	.	(>2.a\	swię-	.
*ped	*	*	*	*	*	*	*	*	*	*	*	*	*
2E/	2rGG	.	2c#\	.	.	.	2E/	.	2c#\	.	.	.	.
.	.	4g/	.	.	.	.	.	.	.	.	4g\)	.	.
=16	=16	=16	=16	=16	=16	=16	=16	=16	=16	=16	=16	=16	=16
!	!	!	!	!LO:DY:b=2:t=pp.	!	!	!	!	!	!	!	!	!
2rB	[>1D [<1DD	1f#	[<1d	pp	2D\	.	2D/	.	2d\	.	2f#/	-te	.
2A/	.	.	.	.	4r	.	4r	.	4r	.	4r	.	.
!	!	!	!	!	!	!	!	!LO:DY:a:t=pp.	!	!LO:DY:a:t=pp.	!	!	!LO:DY:a:t=pp.
.	.	.	.	.	4D\	.	4A\	pp	4d\	pp	4f#/	o-	pp
=17	=17	=17	=17	=17	=17	=17	=17	=17	=17	=17	=17	=17	=17
[<1B	1D_< 1DD_<	[>1g	1d_<	.	2D\	.	2B\	.	2d\	.	2g/	-gła-	.
.	.	.	.	.	4D\	.	4B\	.	4d\	.	4g/	-sza	.
.	.	.	.	.	4D\	.	4B\	.	4d\	.	4g/	na-	.
=18	=18	=18	=18	=18	=18	=18	=18	=18	=18	=18	=18	=18	=18
1B-X]	1D_< 1DD_<	1g]	1d]	.	2D\	.	2B-X\	.	2d\	.	2g/	-u-	.
.	.	.	.	.	2D\	.	2B-\	.	2d\	.	2g/	-ki	.
=19	=19	=19	=19	=19	=19	=19	=19	=19	=19	=19	=19	=19	=19
0A	[>0D] [<0DD]	0f#	0d	.	0D	.	0A	.	0d	.	0f#	swię-	.
=21	=21	=21	=21	=21	=21	=21	=21	=21	=21	=21	=21	=21	=21
1A 1F#	1D] 1DD]	1d	1dyy	.	1D	.	1F#	.	1A	.	1d	-te..	.
*v	*v	*	*	*	*	*	*	*	*	*	*	*	*
*	*v	*v	*	*	*	*	*	*	*	*	*	*
==	==	==	==	==	==	==	==	==	==	==	==
*-	*-	*-	*-	*-	*-	*-	*-	*-	*-	*-	*-
!!!system-decoration: [(g1){(s5,s6)}]
!!!RDF**kern: > = above
!!!RDF**kern: < = below
!!!EED: Antoni Szymański
!!!EEV: 2021-04-16
!!!ENC: Mateusz Solarz
!!!END: 2021-04-07
!!!YEC: Copyright 2022 Narodowy Instytut Fryderyka Chopina (https://polishscores.org)
!!!YEM: Licence CC BY 4.0 (https://creativecommons.org/licenses/by/4.0)
